X:20012
T:Toss the Feathers
R:Reel
C:Trad.
O:Ireland
M:4/4
L:1/8
Q:1/8=260
K:Bm
"Em"EBB2 "Bm"dBB2|"Em"EBB2 "D"F3A|"Em"BEE2 BABc|"Bm"d2fe "Bm"dBAF|
"Em"EBB2 "Bm"dBB2|"Em"EBB2 "D"F3A|"Em"BEE2 BABc|"Bm"d2fe "D"dBA2||
"Bm"(3Bcd ed "Em"e3e|"Bm"fede "Em"fee2|(3gfe be (3gfe be|"Bm"fede "Em"fee2|
"Bm"(3Bcd ed "Em"e3e|"Bm"fede "D"faa2|"Bm"b3f "D"a3f|"Em"egfe "Bm"dBAF|]

